X: 8158
T: Cooke's
R: hornpipe
M: 4/4
K: Dmajor
A|dfec dBAG|FAEA D3d|ceAe ceAf|gefd cABc|
dfec ~d2 AG|FAEA D3d|cABc dfec|dfec d2 Bc|
(3dcd ec dBAG|FAEA D3d|ceAe ceAf|(3gfe fd cABc|
d2 ec ~d2 AG|(3FGA EA D3d|cABc dfec|dfec d3 c|
Acec Adfd|Acec Acfd|faef gefd|(3gfe fd cABc|
(3dcd ec d2 AG|(3FGA EA D4|cABc dfec|dfec d3 c|
Acec Acfd|Acec Acfd|faef gefd|fefd cABc|
(3dcd ec d2 AG|(3FGA EA D3d|cABc dfec|d2ec d4||

